X: 11362
T: LUCKIE BAWDRONS
C: Copyright.
Q: "Reel."
%R: reel
B: W. Hamilton "Universal Tune-Book" Vol. 1 Glasgow 1844 p.136 #2
S: http://imslp.org/wiki/Hamilton's_Universal_Tune-Book_(Various)
Z: 2016 John Chambers <jc:trillian.mit.edu>
M: C
L: 1/8
K: Bm
%%stretchstaff 0
%%slurgraces yes
%%graceslurs yes
% - - - - - - - - - - - - - - - - - - - - - - - - -
f |\
dB B/f/f dcBd | cAce aece |\
dB B/f/f dcBc | dfec {c}B2B :|\
|: f |\
dBdf {^a}b2fd | cAce {^g}a2ec |
dBdf {^a}b2fd | ceac {c}B2Bf |\
dBdf bfdB | cAce aecA |\
Bdce dfe{^g}a | feac {c}B2B |]
% - - - - - - - - - - - - - - - - - - - - - - - - -

%%sep 1 1 500
%%sep 1 1 500

